svg/transport/flight_inflight_fill.svg

<?xml version="1.0" encoding="UTF-8"?>
<svg width="24px" height="24px" viewBox="0 0 24 24" version="1.1" xmlns="http://www.w3.org/2000/svg" xmlns:xlink="http://www.w3.org/1999/xlink">
    <title>flight_inflight_fill</title>
    <g id="页面-1" stroke="none" stroke-width="1" fill="none" fill-rule="evenodd">
        <g id="Transport" transform="translate(-768.000000, -144.000000)" fill-rule="nonzero">
            <g id="flight_inflight_fill" transform="translate(768.000000, 144.000000)">
                 <path d="M24,0 L24,24 L0,24 L0,0 L24,0 Z M12.5934901,23.257841 L12.5819402,23.2595131 L12.5108777,23.2950439 L12.4918791,23.2987469 L12.4918791,23.2987469 L12.4767152,23.2950439 L12.4056548,23.2595131 C12.3958229,23.2563662 12.3870493,23.2590235 12.3821421,23.2649074 L12.3780323,23.275831 L12.360941,23.7031097 L12.3658947,23.7234994 L12.3769048,23.7357139 L12.4804777,23.8096931 L12.4953491,23.8136134 L12.4953491,23.8136134 L12.5071152,23.8096931 L12.6106902,23.7357139 L12.6232938,23.7196733 L12.6232938,23.7196733 L12.6266527,23.7031097 L12.609561,23.275831 C12.6075724,23.2657013 12.6010112,23.2592993 12.5934901,23.257841 L12.5934901,23.257841 Z M12.8583906,23.1452862 L12.8445485,23.1473072 L12.6598443,23.2396597 L12.6498822,23.2499052 L12.6498822,23.2499052 L12.6471943,23.2611114 L12.6650943,23.6906389 L12.6699349,23.7034178 L12.6699349,23.7034178 L12.678386,23.7104931 L12.8793402,23.8032389 C12.8914285,23.8068999 12.9022333,23.8029875 12.9078286,23.7952264 L12.9118235,23.7811639 L12.8776777,23.1665331 C12.8752882,23.1545897 12.8674102,23.1470016 12.8583906,23.1452862 L12.8583906,23.1452862 Z M12.1430473,23.1473072 C12.1332178,23.1423925 12.1221763,23.1452606 12.1156365,23.1525954 L12.1099173,23.1665331 L12.0757714,23.7811639 C12.0751323,23.7926639 12.0828099,23.8018602 12.0926481,23.8045676 L12.108256,23.8032389 L12.3092106,23.7104931 L12.3186497,23.7024347 L12.3186497,23.7024347 L12.3225043,23.6906389 L12.340401,23.2611114 L12.337245,23.2485176 L12.337245,23.2485176 L12.3277531,23.2396597 L12.1430473,23.1473072 Z" id="MingCute" fill-rule="nonzero"></path>
                <path d="M1.59785,9.6296 L3.27916,9.6296 C3.78069,9.6296 4.24904,9.88025 4.52724,10.2975 L5.08265625,11.1280125 L5.08265625,11.1280125 L9.56837,10.6311 C9.57512,10.6304 9.57918,10.6232 9.57637,10.6171 L6.50212,3.83535 C6.35207,3.50435 6.59409,3.12891 6.95751,3.12891 L8.91349,3.12891 C9.39594,3.12891 9.84894,3.36096 10.1308,3.7525 L15.0824125,10.6286875 L15.0824125,10.6286875 L19.7204,10.9864 C20.8602,11.0741 21.851,11.8018 22.2757,12.8631 L22.4201,13.2241 C22.5231,13.4816 22.5111,13.7708 22.3871,14.0189 C21.8937,15.0056 20.8852,15.62891 19.782,15.62891 L4.12955,15.62891 C3.50028,15.62891 2.93791,15.2361 2.72125,14.6453 L1.12842,10.3017 C1.00876,9.97544 1.25029,9.6296 1.59785,9.6296 Z M2.99991,20.0001 C2.44762,20.0001 1.99991,20.4478 1.99991,21.0001 C1.99991,21.5524 2.44762,22.0001 2.99991,22.0001 L20.99991,22.0001 C21.5522,22.0001 21.99991,21.5524 21.99991,21.0001 C21.99991,20.4478 21.5522,20.0001 20.99991,20.0001 L2.99991,20.0001 Z" id="形状" fill="#09244B"></path>
            </g>
        </g>
    </g>
</svg>

<svg xmlns="http://www.w3.org/2000/svg" width="24" height="24"><g fill="none" fill-rule="nonzero"><path d="M24 0v24H0V0h24ZM12.593 23.258l-.011.002-.071.035-.02.004-.014-.004-.071-.035c-.01-.004-.019-.001-.024.005l-.004.01-.017.428.005.02.01.013.104.074.015.004.012-.004.104-.074.012-.016.004-.017-.017-.427c-.002-.01-.009-.017-.017-.018Zm.265-.113-.013.002-.185.093-.01.01-.003.011.018.43.005.012.008.007.201.093c.012.004.023 0 .029-.008l.004-.014-.034-.614c-.003-.012-.01-.02-.02-.022Zm-.715.002a.023.023 0 0 0-.027.006l-.006.014-.034.614c0 .012.007.02.017.024l.015-.002.201-.093.01-.008.004-.011.017-.43-.003-.012-.01-.01-.184-.092Z"/><path fill="#09244B" d="M1.598 9.63h1.681c.502 0 .97.25 1.248.667l.556.831 4.485-.497a.01.01 0 0 0 .008-.014L6.502 3.835a.5.5 0 0 1 .456-.706h1.955a1.5 1.5 0 0 1 1.218.624l4.951 6.876 4.638.357a3 3 0 0 1 2.556 1.877l.144.361a.971.971 0 0 1-.033.795 2.913 2.913 0 0 1-2.605 1.61H4.13a1.5 1.5 0 0 1-1.409-.984l-1.593-4.343a.5.5 0 0 1 .47-.672ZM3 20a1 1 0 1 0 0 2h18a1 1 0 1 0 0-2H3Z"/></g></svg>
